X: 38217
T: Spy Wednesday
R: reel
M: 4/4
K: Gmajor
D|GBAG FD D2|GABd c2BA|GB B2 GB B2|ABAG FDDE|
GBAG FD D2|GABd c2 BA|dB B2 GB B2|ecAF G3:|
e|g3e dB B2|dBAB dB B2|g3e dB B2|ecAG FA D2|
g3e dB B2|dBAB dB B2|GABd cdeg|ecAF G3:|

